22x22/panel/both-good-signal-lock.svg

<svg xmlns="http://www.w3.org/2000/svg" width="22" height="22" version="1.1">
 <defs>
  <style id="current-color-scheme" type="text/css">
   .ColorScheme-Text { color:#323a41; } .ColorScheme-Highlight { color:#4285f4; } .ColorScheme-NeutralText { color:#ff9800; } .ColorScheme-PositiveText { color:#4caf50; } .ColorScheme-NegativeText { color:#f44336; }
  </style>
 </defs>
 <path style="fill:currentColor" class="ColorScheme-Text" d="M 16 12 C 14.892 12 14 12.9109 14 14.03125 L 14 15 L 13 15 L 13 19 L 19 19 L 19 15 L 18 15 L 18 14.03125 C 18 12.91135 17.108 12 16 12 z M 16 13 C 16.554 13 17 13.4424 17 14 L 17 15 L 15 15 L 15 14 C 15 13.4424 15.446 13 16 13 z"/>
 <path style="opacity:0.3;fill:currentColor" class="ColorScheme-Text" d="M 11 4 C 7.9494 4 5.0806 5.0732 3 7 L 11 18 L 12 16.625 L 12 14 L 13.013672 14 C 13.033321 12.365092 14.356157 11 16 11 C 16.028821 11 16.055366 11.008932 16.083984 11.009766 L 19 7 C 16.919 5.0731 14.051 4 11 4 z"/>
 <path style="fill:currentColor" class="ColorScheme-Text" d="M 11 7 A 8 8 0 0 0 4.9863281 9.7324219 L 11 18 L 12 16.625 L 12 14 L 13.013672 14 C 13.033321 12.365092 14.356157 11 16 11 C 16.028752 11 16.055434 11.006983 16.083984 11.007812 L 17.009766 9.734375 A 8 8 0 0 0 11 7 z"/>
</svg>

<svg xmlns="http://www.w3.org/2000/svg" width="22" height="22" version="1.1">
 <defs>
  <style id="current-color-scheme" type="text/css">
   .ColorScheme-Text { color:#d3dae3; } .ColorScheme-Highlight { color:#5294e2; }
  </style>
 </defs>
<path d="M11.034 5C8 5 5.268 6.077 3.003 7.75l8.031 8.75.969-1.069v-1.428h1.014c.02-1.635 1.342-3 2.986-3l.018.002 2.982-3.287C16.746 6.065 14.045 5 11.034 5zm-.062 1c2.393 0 4.524.836 6.437 2.03l-6.437 7L4.597 8c1.9-1.18 4.005-2 6.375-2z" style="fill:currentColor" class="ColorScheme-Text"/>
<path d="M10.972 7.969c-1.488 0-2.85.421-4.094 1.062l4.094 4.5 4.125-4.469c-1.255-.648-2.625-1.093-4.125-1.093zM16.003 12.003c-1.108 0-2 .911-2 2.032v.968h-1v4h6v-4h-1v-.968c0-1.12-.892-2.032-2-2.032zm0 1c.554 0 1 .443 1 1v1h-2v-1c0-.557.446-1 1-1z" style="fill:currentColor" class="ColorScheme-Text"/>
</svg>
